X:4635
L:1/8
M:4/4
K:D
|: F>G | A>B A<F A2 d>e | f>d g<e f2 e>d | B>c d>B A>F D<F | E>D E<F E2 F>G | A>B A<F A2 d>e | 
 f>d g<e f2 e>d | B>c d>B A>F G<E | F2 D2 D2 :: f>g | a>f g<e f<a A>d | B<G d>e f2 e>d | 
 B>c d>B A>F D<F | E>D E<F E2 |1 f>g | a>f g<e f<a A>d | B<G d>e f2 e>d | B>c d>B A>F G<E | 
 F2 D2 D2 :|2 F>G | A>B A<F A2 d>e | f>d g<e f2 e>d | B>c d>B A>F G<E | F2 D2 D2 ||

